X:9958
T:Luck Penny
Z: id:dc-jig-72
M:6/8
L:1/8
K:G Major
dc|BAG AGF|DGE FGA|BAG Bcd|cAG Fdc|!
BAG AGF|GBd gag|fed gdB|cAF G:|!
Bc|dgg gfg|abg fga|bag agf|def g2a|!
bag agf|gag fd^c|def gdB|cAF G:|!
Bc|dBG GFG|dBG GAB|cA=F FEF|cA=F ABc|!
dBG GBd|gag fd^c|def gdB|cAF G:|!


